X: 81
T:Sheehan's
M:C|
L:1/8
C:Traditional
S:Tanscribed from Jay Ungar's "Contranova Set" by S.C.
R:reel
K:G
|:"G (Slide)"{F}G2 BG D-GBG |A-BcA BG~G2|"Am"AGAB (cBcA)|"D"EAAG F-DE-
F |"G (Slide)"{F}G2 BG D-GBG|!
"Am"~c-BAB cde-f|"G"((3gfe d)B "C"~c2 B-c|[1"D"dB-cA "G"BG G2:|[2"D"d
B-cA "G"BGBd||!
"G"~g2bg dgbg|gba(g f)dde|"D"~f2af dfaf|faeg fdef|"G"~g2 bg dgbg|!
gba(g  "D"f)def|"G"((3gfe d)B "C"{B}c2B-c|[1"D"dB-cA "G"BG Bd:|[2"D"dB-c
A "G
"G4|]
